X: 20042
Q: "Not too slow."
M: C
L: 1/8
K: Bb
(Bc)(de) f2f2 | ({f}ed)(ef) {e}d2zf |\
e2c2 d3B | c2A2 B2zF |\
(Bc)(de) f2f2 | ({f}ed)(ef) {e}d2zf |\
e2c2 d3B | c2A2 B2zF |\
c2zc d2d2 | =e3e {eg}f2zf |\
f2d2 d2zf | e2c2 c2zB |\
c2B2 A2B2 | e2d2 (d2c)f |\
f2d2 d2zf | e2c2 c2ze |\
(dc)(ed) c2B2 | (dc)(BA) B2z2 |]


